X:56
T:Sir John Henderson(?) RDO.56
M:6/8
L:1/8
Q:3/8=120
S:Robert D. Owen MS,Indiana,1826.
R:.Jig
O:Indiana,USA
A:New Harmony
N:There are repeat marks before and after the double bar lines but not at
N:the end of the tune, so presumably you are not meant to repeat the
N:second part.
Z:vmp.Chris Partington
K:G
c|B2G GBG|dBG Bcd|efg dBd|ecA A2d|!
B2G GBG|dBG Bcd|efg deg|dBGG2:|!
d|gdg gbg|gbg afd|efg dBd|ecA A2f|!
gdg gbg|gbg afd|efg dBg|dBG G2d|!
gdg gbg|gbg afd|efg dBd|ecA A2f|!
gdg bag|fed afd|efg dBg|dBG G2|]

